static/img/kroki/a1277b3cfb92d2665bf9687ecd933958.svg

<?xml version="1.0" encoding="us-ascii" standalone="no"?><svg xmlns="http://www.w3.org/2000/svg" xmlns:xlink="http://www.w3.org/1999/xlink" contentStyleType="text/css" height="374px" preserveAspectRatio="none" style="width:401px;height:374px;" version="1.1" viewBox="0 0 401 374" width="401px" zoomAndPan="magnify"><defs/><g><!--class azure_network_load_balancer_probe--><g id="elem_azure_network_load_balancer_probe"><rect codeLine="23" fill="#3D176E" height="39.7891" id="azure_network_load_balancer_probe" rx="2.5" ry="2.5" style="stroke:#000D19;stroke-width:0.5;" width="347" x="14.5" y="328.58"/><ellipse cx="29.5" cy="348.4745" fill="#ADD1B2" rx="11" ry="11" style="stroke:#181818;stroke-width:1.0;"/><path d="M32.4688,354.1152 Q31.8906,354.412 31.25,354.5527 Q30.6094,354.7089 29.9063,354.7089 Q27.4063,354.7089 26.0781,353.0683 Q24.7656,351.412 24.7656,348.287 Q24.7656,345.162 26.0781,343.5058 Q27.4063,341.8495 29.9063,341.8495 Q30.6094,341.8495 31.25,342.0058 Q31.9063,342.162 32.4688,342.4589 L32.4688,345.1777 Q31.8438,344.5995 31.25,344.3339 Q30.6563,344.0527 30.0313,344.0527 Q28.6875,344.0527 28,345.1308 Q27.3125,346.1933 27.3125,348.287 Q27.3125,350.3808 28,351.4589 Q28.6875,352.5214 30.0313,352.5214 Q30.6563,352.5214 31.25,352.2558 Q31.8438,351.9745 32.4688,351.3964 L32.4688,354.1152 Z " fill="#000000"/><text fill="#D9B8FF" font-family="Helvetica" font-size="17" lengthAdjust="spacing" textLength="305" x="48.5" y="354.3598">azure_network_load_balancer_probe</text></g><!--class health_check--><g id="elem_health_check"><rect codeLine="26" fill="#3D176E" height="39.7891" id="health_check" rx="2.5" ry="2.5" style="stroke:#000D19;stroke-width:0.5;" width="152" x="7" y="167.79"/><ellipse cx="22" cy="187.6845" fill="#ADD1B2" rx="11" ry="11" style="stroke:#181818;stroke-width:1.0;"/><path d="M24.9688,193.3252 Q24.3906,193.622 23.75,193.7627 Q23.1094,193.9189 22.4063,193.9189 Q19.9063,193.9189 18.5781,192.2783 Q17.2656,190.622 17.2656,187.497 Q17.2656,184.372 18.5781,182.7158 Q19.9063,181.0595 22.4063,181.0595 Q23.1094,181.0595 23.75,181.2158 Q24.4063,181.372 24.9688,181.6689 L24.9688,184.3877 Q24.3438,183.8095 23.75,183.5439 Q23.1563,183.2627 22.5313,183.2627 Q21.1875,183.2627 20.5,184.3408 Q19.8125,185.4033 19.8125,187.497 Q19.8125,189.5908 20.5,190.6689 Q21.1875,191.7314 22.5313,191.7314 Q23.1563,191.7314 23.75,191.4658 Q24.3438,191.1845 24.9688,190.6064 L24.9688,193.3252 Z " fill="#000000"/><text fill="#D9B8FF" font-family="Helvetica" font-size="17" lengthAdjust="spacing" textLength="110" x="41" y="193.5698">health_check</text></g><!--class microsoft_resource--><g id="elem_microsoft_resource"><rect codeLine="29" fill="#3D176E" height="39.7891" id="microsoft_resource" rx="2.5" ry="2.5" style="stroke:#000D19;stroke-width:0.5;" width="200" x="194" y="167.79"/><ellipse cx="209" cy="187.6845" fill="#ADD1B2" rx="11" ry="11" style="stroke:#181818;stroke-width:1.0;"/><path d="M211.9688,193.3252 Q211.3906,193.622 210.75,193.7627 Q210.1094,193.9189 209.4063,193.9189 Q206.9063,193.9189 205.5781,192.2783 Q204.2656,190.622 204.2656,187.497 Q204.2656,184.372 205.5781,182.7158 Q206.9063,181.0595 209.4063,181.0595 Q210.1094,181.0595 210.75,181.2158 Q211.4063,181.372 211.9688,181.6689 L211.9688,184.3877 Q211.3438,183.8095 210.75,183.5439 Q210.1563,183.2627 209.5313,183.2627 Q208.1875,183.2627 207.5,184.3408 Q206.8125,185.4033 206.8125,187.497 Q206.8125,189.5908 207.5,190.6689 Q208.1875,191.7314 209.5313,191.7314 Q210.1563,191.7314 210.75,191.4658 Q211.3438,191.1845 211.9688,190.6064 L211.9688,193.3252 Z " fill="#000000"/><text fill="#D9B8FF" font-family="Helvetica" font-size="17" lengthAdjust="spacing" textLength="158" x="228" y="193.5698">microsoft_resource</text></g><!--class resource--><g id="elem_resource"><rect codeLine="32" fill="#3D176E" height="39.7891" id="resource" rx="2.5" ry="2.5" style="stroke:#000D19;stroke-width:0.5;" width="113" x="131.5" y="7"/><ellipse cx="146.5" cy="26.8945" fill="#ADD1B2" rx="11" ry="11" style="stroke:#181818;stroke-width:1.0;"/><path d="M149.4688,32.5352 Q148.8906,32.832 148.25,32.9727 Q147.6094,33.1289 146.9063,33.1289 Q144.4063,33.1289 143.0781,31.4883 Q141.7656,29.832 141.7656,26.707 Q141.7656,23.582 143.0781,21.9258 Q144.4063,20.2695 146.9063,20.2695 Q147.6094,20.2695 148.25,20.4258 Q148.9063,20.582 149.4688,20.8789 L149.4688,23.5977 Q148.8438,23.0195 148.25,22.7539 Q147.6563,22.4727 147.0313,22.4727 Q145.6875,22.4727 145,23.5508 Q144.3125,24.6133 144.3125,26.707 Q144.3125,28.8008 145,29.8789 Q145.6875,30.9414 147.0313,30.9414 Q147.6563,30.9414 148.25,30.6758 Q148.8438,30.3945 149.4688,29.8164 L149.4688,32.5352 Z " fill="#000000"/><text fill="#D9B8FF" font-family="Helvetica" font-size="17" lengthAdjust="spacing" textLength="71" x="165.5" y="32.7798">resource</text></g><!--reverse link health_check to azure_network_load_balancer_probe--><g id="link_health_check_azure_network_load_balancer_probe"><path codeLine="35" d="M105.5978,222.8546 C125.7778,253.3746 155.08,297.69 175.29,328.25 " fill="none" id="health_check-backto-azure_network_load_balancer_probe" style="stroke:#FFAF37;stroke-width:2.0;"/><polygon fill="none" points="95.67,207.84,100.5929,226.1639,110.6026,219.5454,95.67,207.84" style="stroke:#FFAF37;stroke-width:2.0;"/></g><!--reverse link microsoft_resource to azure_network_load_balancer_probe--><g id="link_microsoft_resource_azure_network_load_balancer_probe"><path codeLine="36" d="M271.2175,222.8116 C250.8475,253.3316 221.23,297.69 200.83,328.25 " fill="none" id="microsoft_resource-backto-azure_network_load_balancer_probe" style="stroke:#FFAF37;stroke-width:2.0;"/><polygon fill="none" points="281.21,207.84,266.2269,219.4808,276.208,226.1425,281.21,207.84" style="stroke:#FFAF37;stroke-width:2.0;"/></g><!--reverse link resource to health_check--><g id="link_resource_health_check"><path codeLine="37" d="M165.4022,62.0646 C145.2222,92.5846 115.92,136.9 95.71,167.46 " fill="none" id="resource-backto-health_check" style="stroke:#FFAF37;stroke-width:2.0;"/><polygon fill="none" points="175.33,47.05,160.3974,58.7554,170.4071,65.3739,175.33,47.05" style="stroke:#FFAF37;stroke-width:2.0;"/></g><!--reverse link resource to microsoft_resource--><g id="link_resource_microsoft_resource"><path codeLine="38" d="M210.7825,62.0216 C231.1525,92.5416 260.77,136.9 281.17,167.46 " fill="none" id="resource-backto-microsoft_resource" style="stroke:#FFAF37;stroke-width:2.0;"/><polygon fill="none" points="200.79,47.05,205.792,65.3525,215.7731,58.6908,200.79,47.05" style="stroke:#FFAF37;stroke-width:2.0;"/></g><!--SRC=[ZP1FJy904CNl_HIRS2O1YGA95o0nUY56l3VJtLcwwNQdcTrAGFtkYg3Pjlpn-jvlvhsPt2WKM5PXAqeiCsIV-CAu2XXACMEcpO8iiUXf3NeqRfiFvC9LO0abYaUqRnYCX3RncXjPEFHUt4JM76InPggTEgmF3Cv_M-X2H2qiU3yBWKrM1upAg6asqRfDjfVsHceuliCEHgoGZyXWC533QHkv6dNnxZzYPNOeXl7JbXImKxCJyKDTRBadefATGt_zinsVGIdZrk8sqbuEdTWXD_HL3eesUrg3zN6C3yX8OLlXedCLJYTAZq_2J-VWHEvV9s1NCwOEmuQuI2s1IZEmu2HoMZ5bADwJvFC8vmWsvAdCKHQnNXh9v4c7bD5JpR8nrTGQE-u_-lt-zGx9YO3_ZhO6ulYsrqr9lW00]--></g></svg>

<svg xmlns="http://www.w3.org/2000/svg" width="401" height="374" viewBox="0 0 401 374"><rect width="347" height="39.789" x="14.5" y="328.58" fill="#3D176E" rx="2.5" ry="2.5" style="stroke:#000d19;stroke-width:.5"/><circle cx="29.5" cy="348.474" r="11" fill="#ADD1B2" style="stroke:#181818;stroke-width:1"/><path d="M32.469 354.115q-.578.297-1.219.438-.64.156-1.344.156-2.5 0-3.828-1.64-1.312-1.657-1.312-4.782t1.312-4.781q1.328-1.656 3.828-1.656.703 0 1.344.156.656.156 1.219.453v2.719q-.625-.579-1.219-.844-.594-.281-1.219-.281-1.343 0-2.031 1.078-.687 1.062-.687 3.156t.687 3.172q.688 1.062 2.031 1.062.625 0 1.219-.265.594-.281 1.219-.86z"/><text x="48.5" y="354.36" fill="#D9B8FF" font-family="Helvetica" font-size="17" textLength="305">azure_network_load_balancer_probe</text><rect width="152" height="39.789" x="7" y="167.79" fill="#3D176E" rx="2.5" ry="2.5" style="stroke:#000d19;stroke-width:.5"/><circle cx="22" cy="187.685" r="11" fill="#ADD1B2" style="stroke:#181818;stroke-width:1"/><path d="M24.969 193.325q-.578.297-1.219.438-.64.156-1.344.156-2.5 0-3.828-1.64-1.312-1.657-1.312-4.782t1.312-4.781q1.328-1.656 3.828-1.656.703 0 1.344.156.656.156 1.219.453v2.719q-.625-.578-1.219-.844-.594-.281-1.219-.281-1.343 0-2.031 1.078-.687 1.062-.687 3.156t.687 3.172q.688 1.062 2.031 1.062.625 0 1.219-.265.594-.281 1.219-.86z"/><text x="41" y="193.57" fill="#D9B8FF" font-family="Helvetica" font-size="17" textLength="110">health_check</text><rect width="200" height="39.789" x="194" y="167.79" fill="#3D176E" rx="2.5" ry="2.5" style="stroke:#000d19;stroke-width:.5"/><circle cx="209" cy="187.685" r="11" fill="#ADD1B2" style="stroke:#181818;stroke-width:1"/><path d="M211.969 193.325q-.578.297-1.219.438-.64.156-1.344.156-2.5 0-3.828-1.64-1.312-1.657-1.312-4.782t1.312-4.781q1.328-1.656 3.828-1.656.703 0 1.344.156.656.156 1.219.453v2.719q-.625-.578-1.219-.844-.594-.281-1.219-.281-1.344 0-2.031 1.078-.687 1.062-.687 3.156t.687 3.172q.688 1.062 2.031 1.062.625 0 1.219-.265.594-.281 1.219-.86z"/><text x="228" y="193.57" fill="#D9B8FF" font-family="Helvetica" font-size="17" textLength="158">microsoft_resource</text><rect width="113" height="39.789" x="131.5" y="7" fill="#3D176E" rx="2.5" ry="2.5" style="stroke:#000d19;stroke-width:.5"/><circle cx="146.5" cy="26.895" r="11" fill="#ADD1B2" style="stroke:#181818;stroke-width:1"/><path d="M149.469 32.535q-.578.297-1.219.438-.64.156-1.344.156-2.5 0-3.828-1.64-1.312-1.657-1.312-4.782t1.312-4.781q1.328-1.656 3.828-1.656.703 0 1.344.156.656.156 1.219.453v2.719q-.625-.578-1.219-.844-.594-.281-1.219-.281-1.344 0-2.031 1.078-.687 1.062-.687 3.156t.687 3.172q.688 1.062 2.031 1.062.625 0 1.219-.265.594-.281 1.219-.86z"/><text x="165.5" y="32.78" fill="#D9B8FF" font-family="Helvetica" font-size="17" textLength="71">resource</text><path fill="none" d="M105.598 222.855c20.18 30.52 49.482 74.835 69.692 105.395M95.67 207.84l4.923 18.324 10.01-6.619zm175.548 14.972c-20.37 30.52-49.988 74.878-70.388 105.438m80.38-120.41-14.983 11.64 9.981 6.663zM165.402 62.065C145.222 92.585 115.92 136.9 95.71 167.46m79.62-120.41-14.933 11.705 10.01 6.619zm35.453 14.972c20.37 30.52 49.987 74.878 70.387 105.438M200.79 47.05l5.002 18.303 9.981-6.662z" style="stroke:#ffaf37;stroke-width:2"/></svg>
